docs/img/icons/social-4.svg

<svg width="32" height="32" viewBox="0 0 32 32" fill="none" xmlns="http://www.w3.org/2000/svg">
<path d="M13.2347 15.7924C13.2347 17.2044 14.3793 18.349 15.7913 18.349C17.2033 18.349 18.348 17.2044 18.348 15.7924C18.348 14.3804 17.2033 13.2358 15.7913 13.2358C14.3794 13.2358 13.2347 14.3804 13.2347 15.7924Z" fill="#237D26"/>
<path fill-rule="evenodd" clip-rule="evenodd" d="M19.0618 22.2537C20.8246 22.2537 22.2537 20.8246 22.2537 19.0618V12.523C22.2537 10.7601 20.8246 9.33108 19.0618 9.33108H12.523C10.7601 9.33108 9.33106 10.7601 9.33106 12.523V19.0618C9.33106 20.8246 10.7601 22.2537 12.523 22.2537H19.0618ZM11.6072 15.7924C11.6072 13.4853 13.4842 11.6083 15.7913 11.6083C18.0984 11.6083 19.9754 13.4853 19.9754 15.7924C19.9754 18.0995 18.0984 19.9765 15.7913 19.9765C13.4842 19.9765 11.6072 18.0995 11.6072 15.7924ZM19.9848 12.6423C20.5385 12.6423 20.9874 12.1934 20.9874 11.6397C20.9874 11.086 20.5385 10.6371 19.9848 10.6371C19.4311 10.6371 18.9822 11.086 18.9822 11.6397C18.9822 12.1934 19.4311 12.6423 19.9848 12.6423Z" fill="#237D26"/>
<path fill-rule="evenodd" clip-rule="evenodd" d="M32 16C32 24.8387 24.8387 32 16 32C7.16133 32 0 24.8387 0 16C0 7.16133 7.16133 0 16 0C24.8387 0 32 7.16133 32 16ZM12.523 7.70362H19.0618C21.7192 7.70362 23.8811 9.86559 23.8812 12.523V19.0618C23.8812 21.7192 21.7192 23.8812 19.0618 23.8812H12.523C9.86556 23.8812 7.7036 21.7192 7.7036 19.0618V12.523C7.7036 9.86559 9.86556 7.70362 12.523 7.70362Z" fill="#237D26"/>
</svg>

<svg width="32" height="32" fill="none" xmlns="http://www.w3.org/2000/svg"><path d="M13.235 15.792a2.557 2.557 0 105.113 0 2.557 2.557 0 00-5.113 0z" fill="#237D26"/><path fill-rule="evenodd" clip-rule="evenodd" d="M19.062 22.254a3.192 3.192 0 003.192-3.192v-6.539a3.192 3.192 0 00-3.192-3.192h-6.539a3.192 3.192 0 00-3.192 3.192v6.539a3.192 3.192 0 003.192 3.192h6.539zm-7.455-6.462a4.189 4.189 0 014.184-4.184 4.189 4.189 0 014.184 4.184 4.189 4.189 0 01-4.184 4.185 4.189 4.189 0 01-4.184-4.185zm8.378-3.15a1.003 1.003 0 100-2.005 1.003 1.003 0 000 2.005z" fill="#237D26"/><path fill-rule="evenodd" clip-rule="evenodd" d="M32 16c0 8.839-7.161 16-16 16S0 24.839 0 16 7.161 0 16 0s16 7.161 16 16zM12.523 7.704h6.539a4.825 4.825 0 014.82 4.819v6.539a4.825 4.825 0 01-4.82 4.82h-6.539a4.825 4.825 0 01-4.82-4.82v-6.539a4.825 4.825 0 014.82-4.82z" fill="#237D26"/></svg>
